X:1
T:Barbuda, 88.88.88
T:Barbuda, 88.88.88
T:Ira David Sankey, 1901
T:Public Domain Courtesy of the Cyber Hymnal™
C:Ira David Sankey, 1901
Z:Public Domain
Z:Courtesy of the Cyber Hymnal™
%%score ( 1 2 ) ( 3 4 )
L:1/8
Q:1/4=87
M:3/4
K:Bb
V:1 treble 
V:2 treble 
V:3 bass 
V:4 bass 
V:1
 [DF]2 | [DF]>[DF] [^C=E][DF] [_EG][EA] | [DB]4 [FB]2 | [Fc]>[FB] [FA][Fc] [=EB][EG] | F4 [DF]2 | %5
 [EG]>[EG] [EG][FG] [=EA][EB] | [FA]4 [^FA]2 | [GB]>[GB] [GB][GB] [DA][DB] | [Fc]4 F2 | %9
 [Fd]>[Fd] [Fe][Fd] [=Ec][_Ed] | [DB]4 F2 | [CF]>[CF] F[DF] [EG][EA] | [DB]4 |] %13
V:2
 x2 | x6 | x6 | x6 | F4 x2 | x6 | x6 | x6 | x4 F2 | x6 | x4 F2 | x2 F x3 | x4 |] %13
V:3
 [B,,B,]2 | [B,,B,]>[B,,B,] [B,,G,][B,,B,] [B,,B,][C,F,] | [B,,F,]4 [B,,D]2 | %3
 [A,,E]>[B,,D] [C,C][C,A,] [C,G,][C,B,] | [F,A,]4 [B,,B,]2 | %5
 [E,B,]>[E,B,] [E,B,][E,=B,] [C,C][C,C] | [F,C]4 [D,D]2 | [G,D]>[G,D] [G,D][G,D] [^F,C][G,B,] | %8
 [F,A,]4 [A,C]2 | B,>_B, [G,=B,][G,B,] [C,C][F,A,] | [G,B,]4 [D,B,]2 | %11
 [F,A,]>[E,A,] [D,B,][B,,B,] [E,B,]F, | [B,,F,]4 |] %13
V:4
 x2 | x6 | x6 | x6 | x6 | x6 | x6 | x6 | x6 | =B,>=B, x4 | x6 | x5 F, | x4 |] %13

